X: 82
T: Piano Sonata no. 26 in E\b major, Adagio
C: Ludwig van Beethoven
%%abc-version 2.0
%%abcx-abcm2ps-target-version 5.9.1 (29 Sep 2008)
%%abc-creator hum2abc beta
%%abcx-conversion-date 2021/01/11 11:42:13
%%abc-edited-by Craig Stuart Sapp
%%abc-edited-by Craig Stuart Sapp
%%abcx-initial-encoding-date 2004/08/30
%%gracespace 0 6 6
%%humdrum-veritas 3225847768
%%humdrum-veritas-data 2392140515
%%linebreak <none>
%%barnumbers 0
L: 1/8
M: 2/4
Q: "Les Adieux: Adagio" 1/4=184
%%staves {1 2}
V: 1 clef=treble
V: 2 clef=bass
K: Eb
[V:1] [E2G2][B,2F2] | 
[V:2] z4 | 
[V:1] [G,3E3]E3//A// | 
[V:2] [C,,3C,3][C,E,] | 
[V:1] GG/>_d/ c!turn!c3//=d// | 
[V:2] [B,,=E,][B,,E,][=A,,F,][_A,,^F,] | 
[V:1] e>c=B g/e'/ & E[E^F][DG] x | 
[V:2] G,=A,=B, z[K:clef=treble] & G,,3z | 
[V:1] e'>c' =b_b & e[e^f][dg][dg] | 
[V:2] G=A=B_B & G,3G | 
[V:1] b2-(3b/B/c/ (3=A/B/_A/ & de (3f/ x/ x/ x | 
[V:2] B2-B z[K:clef=bass] & [FA][EG][DF][B,D] | 
[V:1] [B,2_D2=E2G2][A,2=D2F2] | 
[V:2] z2[B,,,2B,,2] | 
[V:1] x3_G3//_c// & [_G,3E3]E | 
[V:2] [_C,,3_C,3][C,_G,] | 
[V:1] _cB/>_f/ e!turn!e3//=f// & _FFE z | 
[V:2] [_D,_G,][D,G,] [_C,G,][B,,G,-] | 
[V:1] _g>ed !turn!_d3//e// & =ccBB- | 
[V:2] G,F,F,_F,- & =A,,2B,,_A,, | 
[V:1] _f3/e//_d// _c[Be] & BBAE | 
[V:2] F,E,E,_G, & G,,2A,,[_G,,B,,] | 
[V:1] [=DAB=d] z z/ [D/A/B/d/][E/_G/B/e/][E/G/B/e/] | 
[V:2] [F,,B,,F,] z z/ [F,,/B,,/F,/][E,,/B,,/E,/][E,,/B,,/E,/] | 
[V:1] [FBf] z z/ [B/d/][B/e/][B/e/] | 
[V:2] [D,,B,,D,] z z/[K:clef=treble] [F/A/][E/_G/][E/G/] | 
[V:1] [Bf] z z/ [B/f/][B/=g/][A/a/] | 
[V:2] [DF] z z/ [D/F/][_D/E/][_C/E/] | 
[V:1] [Aa] z z/ [B/f/][B/g/][A/a/] | 
[V:2] [_CE] z z/ [=D/F/][_D/E/][=C/E/] | 
[V:1] z [Aa] z [Aa] ]|:  
[V:2] z [CE] z [CE][K:clef=bass] ]|:  
[V:1] [M:2/2][A6a6]dg & x6G2 | 
[V:2] [M:2/2][C6E6][=B,D][_B,_D] | 
[V:1] g2cff2Be & G2F2F2E2 | 
[V:2] [B,2_D2][=A,C][_A,_C][A,2C2][G,B,][^F,=A,] | 
[V:1] e4[A2B2d2][B2e2] & [E4A4B4]D2E2 | 
[V:2] [=F,6_A,6][E,2G,2] | 
[V:1] f2g2a2b2 & [F2B2][G2B2][A2B2]B2 | 
[V:2] [D,2F,2][C,2E,2][B,,2D,2][B,,2D,2F,2] | 
[V:1] .[G2B2g2]z2.[B2b2]z2 | 
[V:2] E,,B,,G,B,, E,,B,,G,B,, | 
[V:1] [b6b'6][B2b2]- | 
[V:2] F,,B,,A,B,, F,,B,,A,B,, | 
[V:1] [B6b6][G2g2] | 
[V:2] G,,B,,B,B,, G,,B,,B,B,, | 
[V:1] [F2f2][D2d2][_C2_c2][B,2B2] | 
[V:2] A,,B,,A,B,, B,,,B,,F,B,, | 
[V:1] .[B,2B2]z2.[B2b2]z2 | 
[V:2] E,,B,,G,B,, E,,B,,G,B,, | 
[V:1] [b6b'6][B2b2]- | 
[V:2] F,,B,,A,B,, F,,B,,A,B,, | 
[V:1] [B6b6][G2g2] | 
[V:2] G,,E,B,E, G,,E,B,E, | 
[V:1] [=E2=e2][F2f2][C2c2][_E2_e2] | 
[V:2] A,,E,CE, =A,,F,CF, | 
[V:1] [Dd]B=AB [Ac][Bd][ce][df] | 
[V:2] [B,,2B,2]ED CB,=A,_A, | 
[V:1] [e4g4][_ac'][gb][fa][eg] | 
[V:2] G,F,E,D, E,F,G,A,[K:clef=treble] | 
[V:1] [d2f2]z2[a'c''][g'b'][f'a'][e'g'] | 
[V:2] B,2CD EFGA | 
[V:1] [d'2f'2][dc'][eb] [=Ba][cg].[Gf].[e^f] | 
[V:2] B2AG FE.D.C[K:clef=bass] | 
[V:1] .[dg].[d^f=a].[dg=b].[dgb] .[egc'].[=fbd'].[gc'e'][gc'=e'] | 
[V:2] .=B,.=A,.G,.=F, ._E,.D,.C,.[_B,,C,] | 
[V:1] .[g2c'2=e'2]z2.[f2c'2f'2]z2 | 
[V:2] .[B,,2C,2]z2[=A,,2C,2]z2 | 
[V:1] _e6f2 & B8- | 
[V:2] C,8- & _G,,6F,,2 | 
[V:1] !sfz!_g8 & B2B=A BABA | 
[V:2] [E,,8C,8] | 
[V:1] e6f2 & B8- | 
[V:2] C,8- & _G,,6F,,2 | 
[V:1] !sfz!=g8 & B2B=A BABA | 
[V:2] [=E,,8C,8] | 
[V:1] ._g2B=A BABA | 
[V:2] [F,,2C,2]z2z4 | 
[V:1] .f2c=B cBcB | 
[V:2] [F,,2D,2]z2z4 | 
[V:1] .f2dc.f2c_B | 
[V:2] [F,,2E,2]z2[F,,2D,2]z2 | 
[V:1] .f2B=A.f2cB | 
[V:2] [F,,2C,2]z2[F,,2D,2]z2 | 
[V:1] ._g2B=A BABA | 
[V:2] [F,,2C,2]z2z4 | 
[V:1] .f2c=B cBcB | 
[V:2] [F,,2D,2]z2z4 | 
[V:1] .f2dc.f2c=B | 
[V:2] [F,,2E,2]z2[F,,2D,2]z2 | 
[V:1] .f2dcf2[c2e2-] | 
[V:2] [F,,2E,2]z2F,2G,=A, | 
[V:1] [c2e2][B2d2][=A2c2][c'2e'2]- & F4x4 | 
[V:2] B,CDEF2[K:clef=treble]G=A | 
[V:1] [c'2e'2][b2d'2]c'2g'2- & f4=a2[a2c'2] | 
[V:2] Bcdef2e2 | 
[V:1] g'2f'4e'2 & [f2b2][f2b2][g2b2][=a2c'2] | 
[V:2] d2_d2c2F2 | 
[V:1] d'8 & d'fgf gfgf | 
[V:2] B,2[^C4=E4][D2F2] & B,8 | 
[V:1] c'8 & c'efe fefe | 
[V:2] x2_G4F2 & B,2=A6 | 
[V:1] b4g2f2 & dBcB gBfB | 
[V:2] B,2[D2F2][E2=G2][D2F2][K:clef=bass] & B,8 | 
[V:1] f2e2d2c2 & BF=AF BFcF | 
[V:2] D2[C2E2][B,2D2][=A,2C2] & F,8 | 
[V:1] d8 & dFGF GFGF | 
[V:2] z2[^C,4=E,4][D,2F,2] & B,,8 | 
[V:1] c8 & cEFE FEFE | 
[V:2] z2=A,6 & z2_G,4F,2 | 
[V:1] B4G2F2[K:clef=bass] & DB,CB, GB,FB, | 
[V:2] B,,2[D,2F,2][_E,2=G,2][D,2F,2] & B,,8 | 
[V:1] F2E2D2C2 & B,F,=A,F, B,F,CF, | 
[V:2] D,2[C,2E,2][B,,2D,2][=A,,2C,2] & F,,8 | 
[V:1] B,4-B,F,D,B,- & B,_G,-[D,2G,2]-[D,G,]x3 | 
[V:2] [B,,,2B,,2]>_G,,2F,,2B,,,2 | 
[V:1] B,B,=A,B, CDEC[K:clef=treble] & F,4x4 | 
[V:2] x2E,D, C,B,,=A,,F, & F,,,2x2x2F,,2 | 
[V:1] B4-BFDB- & B_G-[D2G2]-[DG]x3 | 
[V:2] B,,2>_G,2F,2B,,2 | 
[V:1] F4cdec & BB=ABx4 | 
[V:2] F,,2ED CB,[F,=A,]C | 
[V:1] dc2<B2GF2- | 
[V:2] [B,2D2]>C2B,3G, | 
[V:1] FE2<D2[K:clef=bass]CB,2- | 
[V:2] F,2>E,2D,3C, | 
[V:1] B,G,2<F,2E,D,2- | 
[V:2] B,,2>G,,2F,,3E,, | 
[V:1] D,C,2<B,,2C,B,,2- | 
[V:2] D,,2>C,,2B,,,3[K:clef=treble][F_A] | 
[V:1] B,,2z2z4[K:clef=treble] | 
[V:2] [F8A8] | 
[V:1] z8 |[1 
[V:2] [E8G8] | 
[V:1] [B8f8] | 
[V:2] [D8F8] | 
[V:1] [B8g8] :|][2 
[V:2] [_D8E8] :|]  
[V:1] [B8f8] | 
[V:2] [D8F8] | 
[V:1] [A8a8] | 
[V:2] [C8E8] | 
[V:1] [G6g6]dg | 
[V:2] [=B,6D6][_B,2D2] | 
[V:1] .[G2g2]cf.[F2f2]ce | 
[V:2] [=A,2C2]z2[_A,2C2]z2[K:clef=bass] | 
[V:1] .[E2e2]x2.[D2G2d2]gc' & x2=Adx2c2 | 
[V:2] [G,2C2][^F,2C2][=F,2G,2=B,2][E,2G,2C2] | 
[V:1] F8 | 
[V:2] z8 | 
[V:1] E8 | 
[V:2] z8 | 
[V:1] [_G8=A8e8]- | 
[V:2] z2C,_G,.G,2=A,,E, | 
[V:1] [G6A6e6][F2B2_d2] | 
[V:2] .E,2F,,C,.C,2._D,2 | 
[V:1] _d8 | 
[V:2] z8 | 
[V:1] c8 | 
[V:2] z8[K:clef=treble] | 
[V:1] [c8=d8^f8=a8]- | 
[V:2] z2=D=A.A2[K:clef=bass]^F,C | 
[V:1] [c8d8f8a8] | 
[V:2] .C2D,=A,.A,2D,,D, | 
[V:1] c8 | 
[V:2] z8 | 
[V:1] _c8 | 
[V:2] z8 | 
[V:1] [_c8e8_g8=a8]- | 
[V:2] z2_G,E.E2E,_C | 
[V:1] [c8e8g8a8] | 
[V:2] ._C2_C,_G,.G,2_G,,E, | 
[V:1] _c8 | 
[V:2] z8 | 
[V:1] B8 | 
[V:2] z8[K:clef=treble] | 
[V:1] [B8d8f8_a8]- | 
[V:2] z2A,F.F2F,D | 
[V:1] [B2d2f2a2]b2_c'2b2 | 
[V:2] .D2[K:clef=bass][D,F,][F,A,].[F,2A,2][D,F,][F,A,][K:clef=treble] | 
[V:1] [B8d8f8a8]- | 
[V:2] z2A,F.F2F,D | 
[V:1] [B2d2f2a2][f2b2][_g2_c'2][f2b2] | 
[V:2] .D2d2e2d2 | 
[V:1] [e6=g6b6e'6]a_d' & x6f2 | 
[V:2] [_D6=G6B6][_C2F2A2] | 
[V:1] [_g2_d'2]f_c'[c2a2c'2]x2 & x2_c2x2[B2g2b2] | 
[V:2] [B,2_D2_G2][K:clef=bass][_A,2_D2][F,2D2][_G,2D2] | 
[V:1] [A2a2][_G2_g2][F2f2][G2g2] | 
[V:2] [_C2E2][B,2_D2][A,2C2][_G,2B,2] | 
[V:1] [A8_c8a8] | 
[V:2] z2F,,_D,.D,2F,_D | 
[V:1] [A8=B8a8] | 
[V:2] z2F,,=D,.D,2F,=D | 
[V:1] [=G8=c8=g8] | 
[V:2] z2E,,C,.C,2E,C | 
[V:1] [F8G8=B8f8] | 
[V:2] z2D,,=B,,.B,,2D,=B, | 
[V:1] [E8G8c8e8] | 
[V:2] z2C,,C,.C,2C,C | 
[V:1] [F8A8=B8d8] | 
[V:2] z2C,,C,.C,2C,C | 
[V:1] [E8G8c8] | 
[V:2] z2C,,C,.C,2C,C | 
[V:1] [=B,8D8F8A8] | 
[V:2] z2C,,C,.C,2C,C | 
[V:1] [C8E8G8] | 
[V:2] z2C,,C,.C,2C,C | 
[V:1] [C8E8A8] | 
[V:2] z2C,,C,.C,2C,C | 
[V:1] [E8A8] | 
[V:2] z2C,C C,Cz2 | 
[V:1] [D8A8] | 
[V:2] z2=B,,=B, B,,B,z2 | 
[V:1] [E8A8] | 
[V:2] z2C,C C,Cz2 | 
[V:1] [E8A8] | 
[V:2] z2C,C C,Cz2 | 
[V:1] [E6A6]A,A | 
[V:2] z2C,C C,CC,C | 
[V:1] A,A Aa AaAa | 
[V:2] C,C CE CECE | 
[V:1] [A6a6]dg & x6G2 | 
[V:2] [C6E6][=B,D][_B,_D] | 
[V:1] g2cff2Be & G2F2F2E2 | 
[V:2] [B,2_D2][=A,C][_A,_C][A,2C2][G,B,][^F,=A,] | 
[V:1] [E4A4B4e4][D2A2B2d2][E2B2e2] | 
[V:2] [=F,6_A,6][E,2G,2] | 
[V:1] [F2B2f2][G2B2g2][A2B2a2][B2b2] | 
[V:2] [D,2F,2][C,2E,2][B,,2D,2][B,,2D,2F,2] | 
[V:1] .[G2B2g2]z2.[B2b2]z2 | 
[V:2] E,,B,,G,B,, E,,B,,G,B,, | 
[V:1] [b6b'6][B2b2]- | 
[V:2] F,,B,,A,B,, F,,B,,A,B,, | 
[V:1] [B6b6][G2g2] | 
[V:2] G,,B,,B,B,, G,,B,,B,B,, | 
[V:1] [F2f2][D2d2][_C2_c2][B,2B2] | 
[V:2] A,,B,,A,B,, B,,,B,,F,B,, | 
[V:1] .[B,2B2]z2.[B2b2]z2 | 
[V:2] E,,B,,G,B,, E,,B,,G,B,, | 
[V:1] [b6b'6][B2b2]- | 
[V:2] F,,B,,A,B,, F,,B,,A,B,, | 
[V:1] [B6b6][G2g2] | 
[V:2] G,,E,B,E, G,,E,B,E, | 
[V:1] [=E2=e2][F2f2][C2c2][_E2_e2] | 
[V:2] A,,E,CE, =A,,F,CF, | 
[V:1] [Dd]B=AB [Ac][Bd][ce][df] | 
[V:2] B,,2ED CB,=A,_A, | 
[V:1] [e4g4][_ac'][gb][fa][eg] | 
[V:2] G,F,E,D, E,F,G,A, | 
[V:1] .[d2f2][=Ba][cg] [Gf][e^f].[dg].[df=a] | 
[V:2] .B,2FE DC.=B,.=A, | 
[V:1] .[dg=b].[dgb].[egc'].[fbd'] .[gc'e'].[gc'=e'].[fc'f'].[fc'f'] | 
[V:2] .G,.F,.E,.D, .C,.B,,.[=A,,C,].[A,,C,] | 
[V:1] .[f2b2d'2]z2.[_e2b2_e'2]z2 | 
[V:2] .[_A,,2B,,2]z2.[G,,2B,,2]z2 | 
[V:1] A6B2 & E8- | 
[V:2] F,8- & _C,6B,,2 | 
[V:1] !sfz!_c8 & E2ED EDED | 
[V:2] [A,,8F,8] | 
[V:1] A6B2 & E8- | 
[V:2] F,8- & _C,6B,,2 | 
[V:1] !sfz!=c8 & E2ED EDED | 
[V:2] [=A,,8F,8] | 
[V:1] ._c2ED EDED | 
[V:2] [B,,2F,2]z2z4 | 
[V:1] .B2F=E FEFE | 
[V:2] [B,,2G,2]z2z4 | 
[V:1] .B2GF.B2F_E | 
[V:2] [B,,2A,2]z2[B,,2G,2]z2 | 
[V:1] .B2ED.B2FE | 
[V:2] [B,,2F,2]z2[B,,2G,2]z2[K:clef=treble] | 
[V:1] ._c'2ed eded | 
[V:2] [B,2F2]z2z4 | 
[V:1] .b2f=e fefe | 
[V:2] [B,2G2]z2z4 | 
[V:1] .b2gf.b2f=e | 
[V:2] [B,2A2]z2[B,2G2]z2 | 
[V:1] .b2gfb2[f2a2]- | 
[V:2] [B,2A2]z2B,2CD | 
[V:1] [f2a2][_e2g2][d'2f'2]x2 & B4x2[f'2a'2]- | 
[V:2] EFGAB2cd | 
[V:1] [f'2a'2][e'2g'2][d'2f'2]c''2- & b6[d'2f'2] | 
[V:2] efgab2a2 | 
[V:1] c''2b'4a'2 & [b2e'2][b2e'2][c'2e'2][d'2f'2] | 
[V:2] g2_g2f2B2 | 
[V:1] [g8g'8] & gbc'b c'bc'b | 
[V:2] E2[^F4A4][G2B2] & E8 | 
[V:1] [f8f'8] & faba baba | 
[V:2] x2=d6 & E2_c4B2 | 
[V:1] e'4c'2b2 & gefe c'ebe | 
[V:2] E2[G2B2][_A2=c2][G2B2] & E8 | 
[V:1] b2a2g2f2 & bBdB eBAB | 
[V:2] G2[F2A2][E2G2][D2F2][K:clef=bass] & B,8 | 
[V:1] [G8g8] & GBcB cBcB | 
[V:2] E,2[^F,4=A,4][G,2B,2] & E,8 | 
[V:1] [F8f8] & FABA BABA | 
[V:2] z2=D6 & z2_C4B,2 | 
[V:1] e4[A2c2][G2B2] & GEFE CEB,E | 
[V:2] [E,4G,4B,4][A,,2E,2A,2][E,,2E,2] | 
[V:1] B2A2G2F2 & GB,FA, EG,DF, | 
[V:2] B,,,2B,,2B,,,2B,,2 | 
[V:1] E4-EB,G,E- & E_C-[G,2C2]-[G,C]x3 | 
[V:2] E,,2>_C,2B,,2E,,2 | 
[V:1] EEDE FGAF & B,4x4 | 
[V:2] x2A,G, F,E,B,,2 & B,,,2x2x2D,B, | 
[V:1] e4-eBGe- & e_c-[G2c2]-[Gc]x3 | 
[V:2] E,2>_C2B,2E,2 | 
[V:1] B4fgaf & eedex4 | 
[V:2] B,,2[K:clef=treble]AG FEDF & x2x2x2B,2 | 
[V:1] gf2<e2cB2- | 
[V:2] [E2G2]>[K:clef=bass]F2E3C | 
[V:1] BA2<G2FE2- | 
[V:2] B,2>A,2G,3F, | 
[V:1] EC2<B,2[K:clef=bass]A,G,2- | 
[V:2] E,2>C,2B,,3A,, | 
[V:1] G,F,2<E,2F,E,2- | 
[V:2] G,,2>F,,2E,,3[K:clef=treble][B_d] | 
[V:1] E,2z2z4 | 
[V:2] [B8_d8] | 
[V:1] z8[K:clef=treble] | 
[V:2] [A8c8] | 
[V:1] [e8b8] | 
[V:2] [G8B8] | 
[V:1] [_d8_d'8] | 
[V:2] [F8A8] | 
[V:1] [c6c'6][cf][_db] | 
[V:2] [=E6G6][_E=A][_DF] | 
[V:1] .[_d2b2][Be][ca].[c2a2][Ad][Bg] | 
[V:2] .[_D2F2][DG][CE].[C2E2][CF][B,D] | 
[V:1] .[B2g2][Gc][Af].[A2f2][F2f2] | 
[V:2] .[B,2_D2][B,=E][A,C].[A,2C2][K:clef=bass][A,2=B,2] | 
[V:1] [F4f4][=E2=e2][F2f2] | 
[V:2] [G,4_B,4]-[G,2B,2][F,2A,2] | 
[V:1] [G2c2g2][A2c2a2][B2c2b2][G2c2=e2g2] | 
[V:2] [=E,2G,2][=D,2F,2][C,2E,2][C,2E,2G,2B,2] | 
[V:1] .[A2c2f2a2]z2.[c2c'2]z2 | 
[V:2] F,,C,A,C, F,,C,A,C, | 
[V:1] [c'6c''6][c2c'2]- | 
[V:2] G,,C,B,C, G,,C,B,C, | 
[V:1] [c6c'6][A2a2] | 
[V:2] A,,C,CC, A,,C,CC, | 
[V:1] [G2g2][=E2=e2][_D2_d2][C2c2] | 
[V:2] B,,C,B,C, C,,C,G,C, | 
[V:1] .[C2c2]z2.[c2c'2]z2 | 
[V:2] F,,C,A,C, F,,C,A,C, | 
[V:1] [c'6c''6][c2c'2]- | 
[V:2] G,,C,B,C, G,,C,B,C, | 
[V:1] [c6c'6][A2a2] | 
[V:2] A,,C,CC, F,,C,A,C, | 
[V:1] [F2f2][D2d2][_C2_c2][B,2B2] | 
[V:2] D,,B,,F,B,, D,,B,,F,B,, | 
[V:1] .[B,2B2]z2.[B2b2]z2 | 
[V:2] E,,B,,_G,B,, E,,B,,G,B,, | 
[V:1] [b6b'6][B2b2]- | 
[V:2] F,,B,,A,B,, F,,B,,A,B,, | 
[V:1] [B6b6][_G2_g2] | 
[V:2] _G,,B,,B,B,, G,,B,,B,B,, | 
[V:1] [F2f2][D2d2][_C2_c2][B,2B2] | 
[V:2] A,,B,,A,B,, B,,,B,,F,B,, | 
[V:1] .[B,2B2]z2.[B2b2]z2 | 
[V:2] E,,B,,_G,B,, F,,B,,A,B,, | 
[V:1] .[b2b'2]z2.[_c'2_c''2]z2 | 
[V:2] =G,,E,B,E, A,,E,_CE, | 
[V:1] _c8 | 
[V:2] z8 | 
[V:1] B8 | 
[V:2] z8 | 
[V:1] A2z2z4 | 
[V:2] _C8 | 
[V:1] z8 | 
[V:2] B,8 | 
[V:1] =c8 | 
[V:2] =A,2z2z4 | 
[V:1] B8 | 
[V:2] z8 | 
[V:1] =A2z2z4 | 
[V:2] =C8 | 
[V:1] z8 | 
[V:2] B,8 | 
[V:1] f8 | 
[V:2] _A,2z2z4 | 
[V:1] e8 | 
[V:2] z8[K:clef=treble] | 
[V:1] d2z2z4 | 
[V:2] [F8A8] | 
[V:1] z8 | 
[V:2] [E8G8] | 
[V:1] [B8b8] | 
[V:2] [D8F8] | 
[V:1] [A8a8] | 
[V:2] [C8E8] | 
[V:1] [G8g8]- | 
[V:2] [=B,8D8] | 
[V:1] [G4g4][A2a2][F2f2] | 
[V:2] E4F2D2[K:clef=bass] & B,8 | 
[V:1] [e8g8] | 
[V:2] z B,CB, =A,B,G,E, | 
[V:1] [B8f8] | 
[V:2] _A,F,D,B,, A,,F,,D,,B,,, | 
[V:1] [G4e4][A2c2][G2B2] | 
[V:2] E,,F,,G,,A,, B,,C,D,E, | 
[V:1] [G2B2][F2A2][E2G2][B,2F2] | 
[V:2] F,G,A,=A,B,2_A,2 & B,,8 | 
[V:1] EB,CB, =A,B,GE | 
[V:2] [E,8G,8] | 
[V:1] DEFG A=AcB | 
[V:2] [B,,8F,8][K:clef=treble] | 
[V:1] =ABcB ABge | 
[V:2] [E8G8] | 
[V:1] defg a=ac'b | 
[V:2] [B,8F8] | 
[V:1] =abc'b abg'e' | 
[V:2] [e8g8] | 
[V:1] d'e'f'g' a'=a'c''b' | 
[V:2] [B4d4f4][A4B4d4f4] | 
[V:1] =a'b'_a'g' f'e'd'c' | 
[V:2] [G4B4][E4G4] | 
[V:1] bagf edfa | 
[V:2] [B,4F4A4][B,4F4A4][K:clef=bass] | 
[V:1] [e8g8] | 
[V:2] z B,CB, =A,B,G,E, | 
[V:1] [B8f8] | 
[V:2] A,F,D,B,, A,,F,,D,,B,,, | 
[V:1] [G4e4][A2c2][G2B2] | 
[V:2] E,,F,,G,,A,, B,,C,D,E, | 
[V:1] [G2B2][F2A2][E2G2][B,2F2] | 
[V:2] F,G,A,=A,B,2_A,2 & B,,8 | 
[V:1] EB,CB, =A,B,GE | 
[V:2] [E,8G,8] | 
[V:1] DEFG A=AcB | 
[V:2] [B,,8F,8][K:clef=treble] | 
[V:1] =ABcB ABge | 
[V:2] [E8G8] | 
[V:1] defg a=ac'b | 
[V:2] [B,8F8] | 
[V:1] =abc'b abg'e' | 
[V:2] [e8g8] | 
[V:1] d'e'f'g' a'=a'c''b' | 
[V:2] [B4f4][A4B4f4] | 
[V:1] b' BcB =ABge | 
[V:2] [G2B2][E4G4][E2G2][K:clef=bass] | 
[V:1] defg a=ac'b | 
[V:2] [B,4F4][A,4B,4F4] | 
[V:1] bB,CB, =A,B,GE | 
[V:2] [G,2B,2][E,4G,4][E,2G,2] | 
[V:1] =A,B,_AF DcBD | 
[V:2] [B,,4F,4A,4][B,,4F,4A,4] | 
[V:1] E8 | 
[V:2] z8 | 
[V:1] B,8 | 
[V:2] z8 | 
[V:1] G,2z2z4 | 
[V:2] E,8 | 
[V:1] z8 | 
[V:2] B,,8 | 
[V:1] [E8G8] | 
[V:2] G,,2z2z4 | 
[V:1] [B,8F8] | 
[V:2] z8 | 
[V:1] [G,2E2]z2z4 | 
[V:2] [E,8G,8] | 
[V:1] z4z2[E2G2] | 
[V:2] [B,,8F,8] | 
[V:1] [B,8F8] | 
[V:2] [G,,2E,2]z2z2[E,2G,2] | 
[V:1] [G,2E2]z2z2[e2g2] | 
[V:2] [B,,8F,8] | 
[V:1] [B8f8] | 
[V:2] [G,,2E,2]z2z2[K:clef=treble][E2G2] | 
[V:1] [G2e2]z2z2[e'2g'2] | 
[V:2] [B,8F8] | 
[V:1] z2[e'2g'2][b2f'2][g2e'2] | 
[V:2] [G,2E2]z2z4 | 
[V:1] [g2e'2]z2z4 | 
[V:2] z2[e2g2][B2f2][G2e2] | 
[V:1] z2[E2G2][B,2F2][G,2E2] | 
[V:2] [G2e2]z2z4[K:clef=bass] | 
[V:1] [G,2E2]z2z4[K:clef=bass] | 
[V:2] z2[E,2G,2][B,,2F,2][G,,2E,2] | 
[V:1] [F,6B,6][E,2G,2] | 
[V:2] z2[B,,2D,2]E,,2z2 | 
[V:1] [F,6B,6][E,2G,2] | 
[V:2] z2[B,,2D,2]E,,2z2 | 
[V:1] [F,6B,6][E,2G,2] | 
[V:2] z2[B,,2D,2]E,,2z2 | 
[V:1] [D,6F,6B,6][F,2A,2D2] | 
[V:2] z2B,,2B,,,2B,,2 | 
[V:1] [G,2E2]z2z4 | 
[V:2] E,,8 | 
[V:1] z8[K:clef=treble] | 
[V:2] [D,,8E,,8] | 
[V:1] EFED EFGA | 
[V:2] [C,,8E,,8] | 
[V:1] Bcde fgab | 
[V:2] [B,,,8E,,8] | 
[V:1] (3c'2 d'2 e'2 f'g'a'b' | 
[V:2] [A,,,8E,,8] | 
[V:1] c''4b'2z2 | 
[V:2] [G,,,8E,,8] | 
[V:1] e'f'e'd' (5:4:5e'f'g'a'b' | 
[V:2] E,,8 | 
[V:1] c''4b'2z2 | 
[V:2] [G,,,8E,,8] | 
[V:1] e'f'e'd' (5:4:5e'f'g'a'b' | 
[V:2] [A,,,8E,,8] | 
[V:1] [c'8c''8] | 
[V:2] [G,,,2E,,2]z2z4 | 
[V:1] [b2b'2]z2z4[K:clef=bass] | 
[V:2] z8 | 
[V:1] [F,2A,2B,2D2]z2z4 | 
[V:2] [B,,,2D,,2F,,2B,,2]z2z4 | 
[V:1] [G,2B,2E2]z2z4 |]  
[V:2] [E,,2G,,2B,,2E,2]z2z4 |]  


